public/images/sponsors/Atlassian.svg

<svg fill="none" height="86" viewBox="0 0 172 86" width="172" xmlns="http://www.w3.org/2000/svg" xmlns:xlink="http://www.w3.org/1999/xlink"><linearGradient id="a" gradientUnits="userSpaceOnUse" x1="9.09072" x2="3.61778" y1="43.6465" y2="53.1098"><stop offset="0" stop-color="#0052cc"/><stop offset=".92" stop-color="#2684ff"/></linearGradient><clipPath id="b"><path d="m0 32h172v21.7035h-172z"/></clipPath><g clip-path="url(#b)"><path d="m6.2559 42.0475c-.06258-.0822-.14528-.1467-.24008-.1874-.0948-.0408-.19848-.0563-.30101-.045-.10253.0112-.20043.0488-.2842.1091s-.15059.1412-.19397.235l-5.1695545 10.3602c-.04722.0943-.06960773.1991-.06503849.3045.00456924.1055.03594379.208.09114639.2978s.1324016.1641.2242716.2156c.09187.0516.195363.0787.300658.079h7.198517c.11653.0022.23115-.0299.32966-.0923.09852-.0624.17659-.1524.22456-.2588 1.55119-3.1917.61156-8.0973-2.11496-11.0177z" fill="url(#a)"/><path d="m10.0493 32.6384c-1.28869 1.9865-2.03971 4.2748-2.17932 6.64-.1396 2.3653.337 4.7263 1.38304 6.8512l3.48778 6.9355c.0509.1031.1293.1899.2267.2508.0973.0609.2096.0934.3243.094h7.1986c.1009-.0084.1983-.0407.2843-.0943.0859-.0537.1579-.127.2099-.2141.052-.087.0825-.1852.0891-.2865.0065-.1012-.0111-.2026-.0514-.2956l-9.9219-19.881c-.0475-.0993-.122-.1831-.215-.2417-.093-.0587-.2007-.0898-.3105-.0898-.1099 0-.2175.0311-.3105.0898-.093.0586-.1676.1424-.2151.2417z" fill="#2684ff"/><g fill="#0052cc"><path d="m156.877 36.0408v17.3755h3.695v-13.2519l1.557 3.5173 5.227 9.7346h4.644v-17.3755h-3.695v11.2124l-1.398-3.2524-4.198-7.96z"/><path d="m133.377 36.0408h-4.039v17.3755h4.039z"/><path d="m124.678 48.2776c0-3.0417-1.609-4.4684-6.151-5.4482-2.507-.5554-3.112-1.1107-3.112-1.915 0-1.0054.895-1.4299 2.548-1.4299 2.007 0 3.988.6096 5.861 1.4554v-3.9737c-1.798-.8205-3.757-1.2273-5.733-1.1905-4.488 0-6.81 1.9565-6.81 5.1578 0 2.5534 1.188 4.5992 5.832 5.4993 2.771.5809 3.354 1.0309 3.354 1.9565s-.583 1.4809-2.548 1.4809c-2.359-.0432-4.671-.6692-6.731-1.8224v4.1779c1.399.6862 3.246 1.4522 6.689 1.4522 4.855 0 6.782-2.1671 6.782-5.3939"/><path d="m107.866 48.2776c0-3.0417-1.592-4.4684-6.147-5.4482-2.5067-.5554-3.1151-1.1107-3.1151-1.915 0-1.0054.8983-1.4299 2.5481-1.4299 2.007 0 3.985.6096 5.858 1.4554v-3.9737c-1.799-.8205-3.758-1.2273-5.734-1.1905-4.4844 0-6.8096 1.9565-6.8096 5.1578 0 2.5534 1.1881 4.5992 5.8356 5.4993 2.771.5809 3.35 1.0309 3.35 1.9565s-.579 1.4809-2.548 1.4809c-2.3586-.0432-4.6704-.6692-6.73-1.8224v4.1779c1.4015.6862 3.2489 1.4522 6.689 1.4522 4.857 0 6.781-2.1671 6.781-5.3939"/><path d="m63.1177 36.0408v17.3755h8.3006l1.3059-3.7566h-5.5422v-13.6189z"/><path d="m46.7173 36.0408v3.7534h4.4879v13.6221h4.0643v-13.6221h4.8033v-3.7534z"/><path d="m40.8247 36.0408h-5.3256l-6.0518 17.3755h4.6344l.86-2.9268c2.1107.6216 4.3552.6216 6.4659 0l.8568 2.9268h4.6186zm-2.6628 11.3177c-.7546.0011-1.5055-.1064-2.2296-.3192l2.2296-7.5834 2.2297 7.5834c-.7242.2126-1.4751.3201-2.2297.3192z"/><path d="m85.7261 36.0408h-5.3256l-6.0519 17.3755h4.6186l.86-2.9268c2.1106.6216 4.3552.6216 6.4659 0l.8568 2.9268h4.6185zm-2.6628 11.3177c-.7546.0013-1.5056-.1061-2.2296-.3192l2.2296-7.5834 2.2296 7.5834c-.724.2131-1.475.3206-2.2296.3192z"/><path d="m147.927 36.0408h-5.326l-6.052 17.3755h4.619l.857-2.9268c2.11.6216 4.355.6216 6.466 0l.856 2.9268h4.622zm-2.663 11.3177c-.755.0009-1.505-.1066-2.23-.3192l2.23-7.5834 2.23 7.5834c-.725.2126-1.475.3201-2.23.3192z"/></g></g></svg>

<svg width="172" height="86" viewBox="0 0 172 86" fill="none" xmlns="http://www.w3.org/2000/svg">
<g clip-path="url(#clip0)">
<path d="M6.2559 42.0475C6.19332 41.9653 6.11062 41.9008 6.01582 41.8601C5.92102 41.8193 5.81734 41.8038 5.71481 41.8151C5.61228 41.8263 5.51438 41.8639 5.43061 41.9242C5.34684 41.9845 5.28002 42.0654 5.23664 42.1592L0.0670855 52.5194C0.0198655 52.6137 -0.00252223 52.7185 0.00204701 52.8239C0.00661625 52.9294 0.0379908 53.0319 0.0931934 53.1217C0.148396 53.2115 0.225595 53.2858 0.317465 53.3373C0.409335 53.3889 0.512828 53.416 0.618123 53.4163H7.81664C7.93317 53.4185 8.04779 53.3864 8.1463 53.324C8.24482 53.2616 8.32289 53.1716 8.37086 53.0652C9.92205 49.8735 8.98242 44.9679 6.2559 42.0475Z" fill="url(#paint0_linear)"/>
<path d="M10.0493 32.6384C8.76061 34.6249 8.00959 36.9132 7.86998 39.2784C7.73038 41.6437 8.20698 44.0047 9.25302 46.1296L12.7408 53.0651C12.7917 53.1682 12.8701 53.255 12.9675 53.3159C13.0648 53.3768 13.1771 53.4093 13.2918 53.4099H20.4904C20.5913 53.4015 20.6887 53.3692 20.7747 53.3156C20.8606 53.2619 20.9326 53.1886 20.9846 53.1015C21.0366 53.0145 21.0671 52.9163 21.0737 52.815C21.0802 52.7138 21.0626 52.6124 21.0223 52.5194L11.1004 32.6384C11.0529 32.5391 10.9784 32.4553 10.8854 32.3967C10.7924 32.338 10.6847 32.3069 10.5749 32.3069C10.465 32.3069 10.3574 32.338 10.2644 32.3967C10.1714 32.4553 10.0968 32.5391 10.0493 32.6384Z" fill="#2684FF"/>
<path d="M156.877 36.0408V53.4163H160.572V40.1644L162.129 43.6817L167.356 53.4163H172V36.0408H168.305V47.2532L166.907 44.0008L162.709 36.0408H156.877Z" fill="#0052CC"/>
<path d="M133.377 36.0408H129.338V53.4163H133.377V36.0408Z" fill="#0052CC"/>
<path d="M124.678 48.2776C124.678 45.2359 123.069 43.8092 118.527 42.8294C116.02 42.274 115.415 41.7187 115.415 40.9144C115.415 39.909 116.31 39.4845 117.963 39.4845C119.97 39.4845 121.951 40.0941 123.824 40.9399V36.9662C122.026 36.1457 120.067 35.7389 118.091 35.7757C113.603 35.7757 111.281 37.7322 111.281 40.9335C111.281 43.4869 112.469 45.5327 117.113 46.4328C119.884 47.0137 120.467 47.4637 120.467 48.3893C120.467 49.3149 119.884 49.8702 117.919 49.8702C115.56 49.827 113.248 49.201 111.188 48.0478V52.2257C112.587 52.9119 114.434 53.6779 117.877 53.6779C122.732 53.6779 124.659 51.5108 124.659 48.284" fill="#0052CC"/>
<path d="M107.866 48.2776C107.866 45.2359 106.274 43.8092 101.719 42.8294C99.2123 42.274 98.6039 41.7187 98.6039 40.9144C98.6039 39.909 99.5022 39.4845 101.152 39.4845C103.159 39.4845 105.137 40.0941 107.01 40.9399V36.9662C105.211 36.1457 103.252 35.7389 101.276 35.7757C96.7916 35.7757 94.4664 37.7322 94.4664 40.9335C94.4664 43.4869 95.6545 45.5327 100.302 46.4328C103.073 47.0137 103.652 47.4637 103.652 48.3893C103.652 49.3149 103.073 49.8702 101.104 49.8702C98.7454 49.827 96.4336 49.201 94.374 48.0478V52.2257C95.7755 52.9119 97.6229 53.6779 101.063 53.6779C105.92 53.6779 107.844 51.5108 107.844 48.284" fill="#0052CC"/>
<path d="M63.1177 36.0408V53.4163H71.4183L72.7242 49.6597H67.182V36.0408H63.1177Z" fill="#0052CC"/>
<path d="M46.7173 36.0408V39.7942H51.2052V53.4163H55.2695V39.7942H60.0728V36.0408H46.7173Z" fill="#0052CC"/>
<path d="M40.8247 36.0408H35.4991L29.4473 53.4163H34.0817L34.9417 50.4895C37.0524 51.1111 39.2969 51.1111 41.4076 50.4895L42.2644 53.4163H46.883L40.8247 36.0408ZM38.1619 47.3585C37.4073 47.3596 36.6564 47.2521 35.9323 47.0393L38.1619 39.4559L40.3916 47.0393C39.6674 47.2519 38.9165 47.3594 38.1619 47.3585Z" fill="#0052CC"/>
<path d="M85.7261 36.0408H80.4005L74.3486 53.4163H78.9672L79.8272 50.4895C81.9378 51.1111 84.1824 51.1111 86.2931 50.4895L87.1499 53.4163H91.7684L85.7261 36.0408ZM83.0633 47.3585C82.3087 47.3598 81.5577 47.2524 80.8337 47.0393L83.0633 39.4559L85.2929 47.0393C84.5689 47.2524 83.8179 47.3599 83.0633 47.3585Z" fill="#0052CC"/>
<path d="M147.927 36.0408H142.601L136.549 53.4163H141.168L142.025 50.4895C144.135 51.1111 146.38 51.1111 148.491 50.4895L149.347 53.4163H153.969L147.927 36.0408ZM145.264 47.3585C144.509 47.3594 143.759 47.2519 143.034 47.0393L145.264 39.4559L147.494 47.0393C146.769 47.2519 146.019 47.3594 145.264 47.3585Z" fill="#0052CC"/>
</g>
<defs>
<linearGradient id="paint0_linear" x1="9.09072" y1="43.6465" x2="3.61778" y2="53.1098" gradientUnits="userSpaceOnUse">
<stop stop-color="#0052CC"/>
<stop offset="0.92" stop-color="#2684FF"/>
</linearGradient>
<clipPath id="clip0">
<rect width="172" height="21.7035" fill="white" transform="translate(0 32)"/>
</clipPath>
</defs>
</svg>
